!!!COM: Anonymous
!!!CDT: [?]
!!!OTL: Do Ciebie Panie
!!!TXO: Polish
!!!ODT: 
!!!GTL: Hymnbook E
!!!ARL: Opactwo św. Wojciecha, Staniątki 
!!!voices:	3
**kern	**kern	**text	**kern	**text
*staff3	*staff2	*staff2	*staff1	*staff1
*I"Basso	*I"Canto II	*	*I"Canto I	*
=1-	=1-	=1-	=1-	=1-
*clefF4	*clefG2	*	*clefG2	*
*k[f#c#]	*k[f#c#]	*	*k[f#c#]	*
*met(c|)	*met(c|)	*	*met(c|)	*
*M2/2	*M2/2	*	*M2/2	*
2D	2f#	Do	2a	Do
4BB	4g#	Cie-	4dd	Cie-
4AA	4a	-bie	4cc#	-bie
=2	=2	=2	=2	=2
2E	4a	Pa-	2b	Pa-
.	4g#	.	.	.
2AA	2a	-nie	2cc#	-nie
=3	=3	=3	=3	=3
4.D	4.f#	po-	4.dd	po-
8D	8f#	-kor-	8dd	-kor-
4BB	4g#	-nie	4dd	-nie
4AA	4a	wo-	4cc#	wo-
=4	=4	=4	=4	=4
2E	4a	-ła-	2b	-ła-
.	4g#	.	.	.
2AA	2a	-my	2cc#	-my
=5||	=5||	=5||	=5||	=5||
2D	2f#	Łzy	2a	Łzy
4BB	4g#i	wy-	4b	wy-
4AA	4a	-le-	4cc#	-le-
=6	=6	=6	=6	=6
2D	2a	-wa-	2dd	-wa-
2AA	2a	-jąc	2cc#	-jąc
=7	=7	=7	=7	=7
4D	4a	ser-	4dd	ser-
4G	4g	-de-	4b	-de-
4D	4f#	-cznie	4a	-cznie
4GG	8gL	wzdy-	4b	wzdy-
.	8f#J	.	.	.
=8	=8	=8	=8	=8
2AA	2e	-cha-	2a	-cha-
2D	2f#	-my.	2a	-my.
==	==	==	==	==
*-	*-	*-	*-	*-
!!!GTL: Hymnbook E
!!!EFL: 83/117
!!!YEM: Creative Commons CC/BY/NC/SA 4.0
!!!ENC: Marcin Konik
!!!END: 
!!!EED: Marcin Konik
!!!EEV: 
!!!ONB: Translated from MusicXML and edited by Marcin Konik
!!!CharacterEncoding: utf-8
!!!RDF**kern: l=long note in original notation
!!!RDF**kern: i=editorial accidental
!!muse2ps: z14jc180F
